frontend/src/assets/icons/exchange-team.svg

<?xml version="1.0" encoding="UTF-8" standalone="no"?>
<svg
   id="svg10"
   width="200mm"
   height="200mm"
   viewBox="0 0 200 200"
   version="1.1"
   xmlns="http://www.w3.org/2000/svg"
   xmlns:svg="http://www.w3.org/2000/svg">
  <defs
     id="defs6" />
  <path
     id="path161"
     style="stroke-width:9.89541"
     d="m 240.17773,0.44140625 c -1.46245,-0.0188976 -2.31458,0.0680824 -2.48632,0.26953125 C 221.81682,19.342081 204.69506,79.762574 190.90039,143.88672 174.08161,222.06798 173.26405,223.43966 135.78516,236.32422 54.917259,264.12529 55.769418,358.96335 0.50195312,518.43359 V 663.375 C 2.9883531,654.9552 5.4527408,646.37826 7.8867188,637.60352 24.29021,578.46748 40.792118,527.25916 44.556641,523.80664 c 3.764863,-3.45256 4.1295,5.08214 0.810547,18.9668 -3.318955,13.88466 -12.937558,71.195 -21.373047,127.35742 -4.912328,32.7058 -10.088621,62.78883 -15.5488285,90.3457 H 51.300781 c 1.015937,-5.89629 2.016816,-11.85768 2.984375,-17.94922 C 95.999273,479.9 57.919373,390.26207 124.61328,331.79883 c 20.56097,-18.02359 39.20755,-30.94869 41.43555,-28.72071 2.22807,2.228 -9.85842,69.99215 -7.95313,100.54297 4.30129,68.97022 1.43552,99.9401 -4.50586,184.58594 l -22.72851,126.67188 c 81.23301,45.29658 522.2067,72.90784 549.48242,-48.9961 C 633.63196,584.12158 631.72211,591.85124 599.31641,532.5 c -0.15799,-0.31332 -0.3175,-0.62149 -0.47461,-0.9375 -0.0707,-0.13757 -0.13869,-0.28005 -0.20899,-0.41797 -19.51268,-39.55937 -30.42675,-100.87103 -30.01758,-191.73242 0.39942,-88.70937 4.67993,-119.83571 23.13086,-168.22266 12.45188,-32.65485 24.79995,-66.4134 27.43946,-75.017575 C 626.58537,72.050023 523.87635,30.968861 410.5957,12.740234 363.82564,5.214175 250.41511,0.5730094 240.17773,0.44140625 Z M 642.63281,125.01172 c -4.7334,4.69372 -8.78674,11.14529 -12.19531,17.71094 -7.93183,15.27836 -16.6929,42.61553 -24.04688,73.00781 h 125.22071 c -20.02254,-40.73734 -51.20358,-71.96451 -88.97852,-90.71875 z m -41.19922,112.72461 c -4.02172,19.23999 -7.32509,38.83356 -9.35156,56.73242 -0.40305,3.55982 -0.72477,7.69125 -0.98242,12.20117 h 164.17187 c -1.6964,-24.81838 -6.61733,-47.90714 -14.2832,-68.93359 z m -11.01562,90.9375 c -0.24076,22.45814 0.64055,48.50367 2.39062,68.93359 h 151.12696 c 7.32922,-22.31493 11.6751,-45.51401 11.9707,-68.93359 z m -124.5957,-109.97461 95.39062,95.38867 -95.39062,95.38867 -20.75782,-20.75781 59.80274,-59.80273 H 348.68555 v -29.65625 h 156.18164 l -59.80274,-59.80274 z m 129.61132,200.91406 c 0.0302,0.18028 0.0625,0.37758 0.0937,0.55469 3.61028,20.25203 9.25032,45.15661 16.26758,68.38672 h 83.53906 c 15.81691,-20.87789 29.79093,-44.18153 40.31446,-68.94141 z m -334.22851,-75.37695 20.75781,20.75781 -59.80273,59.80469 H 378.3418 v 29.65429 H 222.16016 l 59.80273,59.80469 -20.75781,20.75781 -95.38867,-95.38867 z m 357.89258,166.32226 c 5.55825,15.19631 11.69785,28.49432 18.19531,37.68946 13.56438,-10.68734 27.09133,-23.38716 39.89648,-37.68946 z"
     transform="scale(0.26458333)" />
</svg>

<?xml version="1.0" encoding="UTF-8" standalone="no"?>
<svg
   id="svg10"
   width="200mm"
   height="200mm"
   viewBox="0 0 200 200"
   version="1.1"
   xmlns="http://www.w3.org/2000/svg"
   xmlns:svg="http://www.w3.org/2000/svg">
  <defs
     id="defs6" />
  <path
     id="path161"
     style="stroke-width:9.89541"
     d="M 240.17773 0.44140625 C 238.71528 0.42250861 237.86315 0.50948868 237.69141 0.7109375 C 221.81682 19.342081 204.69506 79.762574 190.90039 143.88672 C 174.08161 222.06798 173.26405 223.43966 135.78516 236.32422 C 54.917262 264.12529 55.769419 358.96334 0.50195312 518.43359 L 0.50195312 663.375 C 2.9883531 654.9552 5.4527408 646.37826 7.8867188 637.60352 C 24.29021 578.46748 40.792118 527.25916 44.556641 523.80664 C 48.321504 520.35408 48.686142 528.88878 45.367188 542.77344 C 42.048233 556.6581 32.42963 613.96844 23.994141 670.13086 C 19.081813 702.83666 13.90552 732.91969 8.4453125 760.47656 L 51.300781 760.47656 C 52.316718 754.58027 53.317597 748.61888 54.285156 742.52734 C 95.999273 479.89999 57.919371 390.26207 124.61328 331.79883 C 145.17425 313.77524 163.82083 300.85013 166.04883 303.07812 C 168.2769 305.30612 156.19041 373.07027 158.0957 403.62109 C 162.39699 472.59131 159.53122 503.56119 153.58984 588.20703 L 130.86133 714.87891 C 212.09434 760.17549 653.06803 787.78675 680.34375 665.88281 C 633.63196 584.12158 631.72211 591.85124 599.31641 532.5 C 599.15842 532.18668 598.99891 531.87851 598.8418 531.5625 C 598.77112 531.42493 598.70311 531.28245 598.63281 531.14453 C 579.12013 491.58516 568.20606 430.2735 568.61523 339.41211 C 569.01465 250.70274 573.29516 219.5764 591.74609 171.18945 C 604.19797 138.5346 616.54604 104.77605 619.18555 96.171875 C 626.58537 72.050023 523.87635 30.968861 410.5957 12.740234 C 363.82564 5.2141745 250.41511 0.5730094 240.17773 0.44140625 z M 642.63281 125.01172 C 637.89941 129.70544 633.84607 136.15701 630.4375 142.72266 C 622.50567 158.00102 613.7446 185.33819 606.39062 215.73047 L 731.61133 215.73047 C 711.58879 174.99313 680.40775 143.76596 642.63281 125.01172 z M 601.43359 237.73633 C 597.41187 256.97632 594.1085 276.56989 592.08203 294.46875 C 591.67898 298.02857 591.35726 302.16 591.09961 306.66992 L 755.27148 306.66992 C 753.57508 281.85154 748.65415 258.76278 740.98828 237.73633 L 601.43359 237.73633 z M 590.41797 328.67383 C 590.17721 351.13197 591.05852 377.1775 592.80859 397.60742 L 743.93555 397.60742 C 751.26477 375.29249 755.61065 352.09341 755.90625 328.67383 L 590.41797 328.67383 z M 595.43359 419.61328 C 595.46383 419.79356 595.49597 419.99086 595.52734 420.16797 C 599.13762 440.42 604.77766 465.32458 611.79492 488.55469 L 695.33398 488.55469 C 711.15089 467.6768 725.12491 444.37316 735.64844 419.61328 L 595.43359 419.61328 z M 312.99023 450.53906 L 313.05273 498.72461 L 456.99805 498.72461 L 457.06055 450.53906 L 578.60742 578.29492 L 456.74023 699.50977 L 456.80273 651.32617 L 313.24805 651.32617 L 313.31055 699.50977 L 191.44336 578.29492 L 312.99023 450.53906 z M 619.09766 510.55859 C 624.65591 525.7549 630.79551 539.05291 637.29297 548.24805 C 650.85735 537.56071 664.3843 524.86089 677.18945 510.55859 L 619.09766 510.55859 z "
     transform="scale(0.26458333)" />
</svg>
